X:816
T:Brose and Butter
O:england
M:9/8
L:1/8
R:Slip Jig
K:Bm
"Bm"def BdB BBB|"Bm"def BdB "A"ecA|"Bm"def BdB Bcd|"A"cBA Aaf ecA:|
|:"D"def a2f a2f|"D"def a2f "A"ecA|"D"def a2f "A"ecA|"A"cBA Aaf ecA:||


